src/images_karasa_jaga_svg/cmd/sc_importslidefromfile.svg

<svg enable-background="new 0 0 128 128" height="16" viewBox="0 0 16 16" width="16" xmlns="http://www.w3.org/2000/svg" xmlns:xlink="http://www.w3.org/1999/xlink"><linearGradient id="a" gradientTransform="matrix(0 .14530659 -.14530659 0 11.992625 -3.227314)" gradientUnits="userSpaceOnUse" x1="63.998402" x2="63.998402" y1="2.012823" y2="74.721313"><stop offset="0" stop-color="#fefefe"/><stop offset=".23920465" stop-color="#e9eaea"/><stop offset="1" stop-color="#fdfdfd"/></linearGradient><linearGradient id="b" gradientTransform="matrix(0 -1.0293895 1.0293895 0 11.93834 80.22496)" gradientUnits="userSpaceOnUse" x1="-6.991526" x2="59.86364" y1="40.242023" y2="40.242023"><stop offset="0"/><stop offset=".07230393"/><stop offset=".56999999" stop-opacity=".588235"/><stop offset=".74199998" stop-color="#3b3b3b" stop-opacity=".72"/><stop offset="1" stop-color="#fff" stop-opacity="0"/></linearGradient><filter id="c"><feGaussianBlur stdDeviation="1.7999096"/></filter><linearGradient id="d" gradientTransform="matrix(0 -1.0293895 1.0293895 0 11.93834 80.22496)" gradientUnits="userSpaceOnUse" x1="3.036749" x2="66.549156" y1="36.899265" y2="36.899265"><stop offset="0"/><stop offset=".58218712"/><stop offset=".58218712" stop-opacity=".588235"/><stop offset=".74199998" stop-color="#3b3b3b" stop-opacity=".72"/><stop offset="1" stop-color="#fff" stop-opacity="0"/></linearGradient><filter id="e"><feGaussianBlur stdDeviation=".89030997"/></filter><filter id="f" height="1.294962" width="1.106002" x="-.053001" y="-.147481"><feGaussianBlur stdDeviation="1.4133574"/></filter><filter id="g"><feGaussianBlur stdDeviation="1.9"/></filter><filter id="h"><feGaussianBlur stdDeviation="1.1263538"/></filter><linearGradient id="i" gradientUnits="userSpaceOnUse" x1="56" x2="56" y1="32" y2="88.117546"><stop offset="0" stop-color="#fff"/><stop offset="1" stop-color="#fff" stop-opacity="0"/></linearGradient><linearGradient id="j" gradientUnits="userSpaceOnUse" x1="52" x2="52" y1="64" y2="68"><stop offset="0"/><stop offset="1" stop-opacity="0"/></linearGradient><radialGradient id="k" cx="48" cy="112" gradientTransform="matrix(1.2935346 -.00553408 .00454134 1.0614911 3.986491 -10.444275)" gradientUnits="userSpaceOnUse" r="32"><stop offset="0" stop-color="#ffea00"/><stop offset="1" stop-color="#ffa000"/></radialGradient><radialGradient id="l" cx="100.88867" cy="155.99673" gradientTransform="matrix(6.2113128 0 0 5.5040777 -486.03133 -654.01913)" gradientUnits="userSpaceOnUse" r="40"><stop offset="0" stop-color="#fff"/><stop offset=".11366145" stop-color="#bdbebf"/><stop offset=".20296688" stop-color="#ececec"/><stop offset=".2363" stop-color="#fafafa"/><stop offset=".38818121" stop-color="#fff"/><stop offset=".5313" stop-color="#fafafa"/><stop offset=".8449" stop-color="#ebecec"/><stop offset="1" stop-color="#e1e2e3"/></radialGradient><clipPath id="m"><path d="m14.530963 56.084772c-1.219674 0-2.1875.967827-2.1875 2.1875v17.0625c9.640301 2.396967 24.165833 3.665228 35.656537 3.665228s22.359699-1.353033 32-3.75v-17.0625c0-1.219674-.967827-2.1875-2.1875-2.1875z" filter="url(#f)"/></clipPath><g transform="matrix(.125 0 0 .125 .002764 0)"><path d="m27.202621 48.772272c-3.884437 0-7 3.146813-7 7.03125v53.730498c0 3.88444 3.115563 7 7 7l53.797379-.08478c3.884437 0 7-3.11556 7-7v-53.73049c0-3.884437-3.115563-7.03125-7-7.03125l-3.88919-.03181v4.637172c0 .95614-.762611 1.71875-1.71875 1.71875h-8.667249c-.95614 0-1.71875-.762611-1.71875-1.71875v-4.637172z" style="fill:#020202;stroke:#000;stroke-width:2;stroke-linecap:round;stroke-linejoin:round;stroke-dashoffset:1.0878;filter:url(#g)" transform="matrix(1.4153344 0 0 1.4153344 -4.59356 -51.891023)"/><path d="m33.376496 16.165008c-5.191469.01569-9.376592 4.1851-9.376592 9.376591v77.152341c0 5.19149 4.185749 9.29456 9.376592 9.37659l38.623504-.07053 38.57928-.0494c5.19149-.007 9.37659-4.1851 9.37659-9.37659v-77.152391c0-5.191491-4.1851-9.376591-9.37659-9.376591l-6.60139-.045028v5.554723c0 1.353258-1.07935 2.432606-2.43261 2.432606h-11.134785c-1.353258 0-2.436098-1.079355-2.432606-2.432606v-5.554723z" fill="#fff"/><path d="m32.845744 17.580343c-4.109829.0097-7.430506 3.320663-7.430506 7.430505v78.213842c0 4.10985 3.320669 7.4368 7.430506 7.4305l78.264286-.11998c4.10984-.005 7.4305-3.32065 7.4305-7.4305v-78.213842c0-4.109841-3.32066-7.430505-7.4305-7.430505l-5.71681-.04503v4.935513c0 1.69157-1.36024 3.051815-3.05181 3.051815h-12.727041c-1.691574 0-3.051815-1.360243-3.051815-3.051815v-4.935513z" fill="url(#l)"/><rect fill="url(#k)" height="64" rx="3.115968" width="80" x="31.977888" y="40"/><rect fill="url(#j)" filter="url(#h)" height="32.170307" rx="2.201577" transform="matrix(1.4153344 0 0 1.4153344 -1.35127 -50.340362)" width="56.451389" x="23.548611" y="63.829693"/><path clip-path="url(#m)" d="m26.275197 56.107927c-1.219674 0-2.726587 1.222905-2.726587 2.442578l-.0996 11.688359.0996 5.374141c9.640301 2.396967 12.960686 3.386995 24.45139 3.386995s22.359699-1.353033 32-3.75v-17.0625c0-1.219674-.967827-2.1875-2.1875-2.1875z" fill="url(#i)" filter="url(#f)" transform="matrix(1.4153344 0 0 1.4153344 -1.35127 -39.017687)"/><path d="m31.988696 101.03857v1.41533c0 1.72624 1.36982 3.08751 3.096044 3.09604l73.7971.4439c1.72622.009 3.09605-1.3698 3.09605-3.09604v-1.41533c0 1.72623-1.36983 3.10457-3.09605 3.09604l-73.7971-.4439c-1.726223-.009-3.096044-1.36981-3.096044-3.09604z" fill="#fff"/></g><g transform="translate(0 2)"><path d="m62.6875 3.21875c-.478139.1064395-.863753.5090233-1.21875.84375l-.09375-.09375-34.96875 32.4375c-.461774.435805-.93749.966265-.9375 2.125 0 1.158773.47582 1.689264.9375 2.125l8.15625 8.1875c.01033.01051.02074.02092.03125.03125 1.094359 1.058529 2.650674 1.128065 3.84375.21875.01051-.01032.02092-.02074.03125-.03125l16.704-14.37675-.7205 41.6285c.0071 1.490569.187893 2.929247 1.90625 2.9375h13.9245c1.717353-.0082 2.929282-1.220155 2.9375-2.9375l-.7205-39.908 15.84375 12.65625c.01032.01051.02074.02092.03125.03125 1.071736.816838 2.843935.718071 3.8125-.21875.01051-.01032.02093-.02074.03125-.03125l8.25-8.21875c.68731-.648651.84376-1.38688.84375-2.09375 0-.706872-.21893-1.476333-.90625-2.125l-35-32.4375c-.432544-.4114708-.997628-.6552326-1.59375-.6875-.274544-.0640462-.59633-.1801885-1.125-.0625z" fill="url(#d)" filter="url(#e)" transform="matrix(0 .14530659 -.14530659 0 12.211258 -3.227314)"/><path d="m62.5625 2.65625c-.545945.121534-.885393.4596071-1.1875.75-.0054.00523-.02586-.0052-.03125 0-.127908.0107748-.251528.0669656-.34375.15625l-34.96875 32.4375c-.487207.459808-1.124989 1.218707-1.125 2.53125 0 1.299271.640131 2.03886 1.125 2.5v.03125l8.125 8.1875c.01268.01291.01842.01864.03125.03125 1.276892 1.235085 3.2023 1.310508 4.59375.25.01082-.01.02125-.02043.03125-.03125l.0625-.03125 16.62675-15.3785.1085 42.224c.0037.767135.04152 1.581995.375 2.28125.333476.699255 1.077838 1.213871 2.09375 1.21875h11.34375c1.980464-.0095 3.490523-1.519543 3.5-3.5l.1085-38.783 14.90625 11.9375c.01268.01291.01842.01864.03125.03125h.03125c.01.01082.02043.02125.03125.03125 1.326646 1.011121 3.361897.911254 4.5625-.25.01291-.01268.01864-.01842.03125-.03125l8.21875-8.21875v-.03125c.79355-.761926 1.03126-1.685895 1.03125-2.46875 0-.822906-.28842-1.77121-1.09375-2.53125l-35-32.4375c-.505466-.4808399-1.150612-.7526006-1.84375-.8125v-.03125c-.01516-.00354-.07607.00438-.09375 0-.242188-.060001-.673216-.1978559-1.28125-.0625z" fill="url(#b)" filter="url(#c)" opacity=".381188" transform="matrix(0 .14530659 -.14530659 0 12.211258 -3.227314)"/><g stroke-width=".125"><path d="m11.442795 6.0730299-4.7864664 5.1231211c-.011535.01222-.027599.01915-.044406.01915s-.03287-.0069-.044406-.01915l-1.1966159-1.196617c-.020982-.02169-.022969-.05546-.00467-.07946l2.3137666-2.8933842h-6.6109605c-.033493-.0001625-.0606051-.0272724-.0607654-.0607657v-1.8784689c.0001625-.033493.027272-.060605.060765-.060765h6.6109609l-2.3137704-2.893382c-.018294-.024003-.016308-.05777.00467-.079463l1.1966202-1.19661618c.011535-.012223.027599-.019151.044406-.019151s.03287.00693.044406.019151l4.7864669 5.13166418c.03437.024347 0 .058632-.000001.084137z" fill="url(#a)"/><path d="m11.457211 6.0002883c-.0016-.00704-.0082-.016331-.01681-.022418l-4.7862528-5.12078858c-.011535-.012223-.02803-.016814-.044836-.016814-.016807 0-.027696.00459-.039232.016814l-.5639227.56181798 4.3341875 4.5589704c.03437.024347 0 .058563 0 .084068l-4.2678943 4.5522549.4976296.499139c.011536.01222.022425.01681.039232.01681s.033301-.0046.044836-.01681l4.7862487-5.0513939c0-.019129.02165-.04054.01681-.06165z" fill="#fff"/></g></g></svg>

<?xml version="1.0" encoding="UTF-8" standalone="no"?>
<svg
   xmlns:dc="http://purl.org/dc/elements/1.1/"
   xmlns:cc="http://creativecommons.org/ns#"
   xmlns:rdf="http://www.w3.org/1999/02/22-rdf-syntax-ns#"
   xmlns:svg="http://www.w3.org/2000/svg"
   xmlns="http://www.w3.org/2000/svg"
   xmlns:sodipodi="http://sodipodi.sourceforge.net/DTD/sodipodi-0.dtd"
   xmlns:inkscape="http://www.inkscape.org/namespaces/inkscape"
   enable-background="new 0 0 128 128"
   height="16"
   viewBox="0 0 16 16"
   width="16"
   version="1.1"
   id="svg62"
   sodipodi:docname="sc_importslidefromfile.svg"
   inkscape:version="0.92.4 (unknown)"
   inkscape:export-filename="/home/rizmut/Dokumen/Rizmut/Github/libreoffice-style-karasa-jaga/build/next/cmd/sc_importslidefromfile.png"
   inkscape:export-xdpi="96"
   inkscape:export-ydpi="96">
  <metadata
     id="metadata68">
    <rdf:RDF>
      <cc:Work
         rdf:about="">
        <dc:format>image/svg+xml</dc:format>
        <dc:type
           rdf:resource="http://purl.org/dc/dcmitype/StillImage" />
        <dc:title></dc:title>
      </cc:Work>
    </rdf:RDF>
  </metadata>
  <defs
     id="defs66">
    <linearGradient
       id="e-9"
       gradientTransform="matrix(0,0.14530659,-0.14530659,0,11.992625,-3.2273136)"
       gradientUnits="userSpaceOnUse"
       x1="63.998402"
       x2="63.998402"
       y1="2.0128231"
       y2="74.721313">
      <stop
         offset="0"
         stop-color="#fefefe"
         id="stop1528" />
      <stop
         offset=".23920465"
         stop-color="#e9eaea"
         id="stop1530" />
      <stop
         offset="1"
         stop-color="#fdfdfd"
         id="stop1532" />
    </linearGradient>
    <linearGradient
       id="d-5"
       gradientTransform="matrix(0,-1.0293895,1.0293895,0,11.93834,80.22496)"
       gradientUnits="userSpaceOnUse"
       x1="-6.9915261"
       x2="59.86364"
       y1="40.242023"
       y2="40.242023">
      <stop
         offset="0"
         id="stop1517" />
      <stop
         offset=".07230393"
         id="stop1519" />
      <stop
         offset=".56999999"
         stop-opacity=".588235"
         id="stop1521" />
      <stop
         offset=".74199998"
         stop-color="#3b3b3b"
         stop-opacity=".72"
         id="stop1523" />
      <stop
         offset="1"
         stop-color="#fff"
         stop-opacity="0"
         id="stop1525" />
    </linearGradient>
    <filter
       id="c-0">
      <feGaussianBlur
         stdDeviation="1.7999096"
         id="feGaussianBlur1514" />
    </filter>
    <linearGradient
       id="b-4"
       gradientTransform="matrix(0,-1.0293895,1.0293895,0,11.93834,80.22496)"
       gradientUnits="userSpaceOnUse"
       x1="3.0367489"
       x2="66.549156"
       y1="36.899265"
       y2="36.899265">
      <stop
         offset="0"
         id="stop1503" />
      <stop
         offset=".58218712"
         id="stop1505" />
      <stop
         offset=".58218712"
         stop-opacity=".588235"
         id="stop1507" />
      <stop
         offset=".74199998"
         stop-color="#3b3b3b"
         stop-opacity=".72"
         id="stop1509" />
      <stop
         offset="1"
         stop-color="#fff"
         stop-opacity="0"
         id="stop1511" />
    </linearGradient>
    <filter
       id="a-8">
      <feGaussianBlur
         stdDeviation=".89030997"
         id="feGaussianBlur1500" />
    </filter>
  </defs>
  <sodipodi:namedview
     pagecolor="#ffffff"
     bordercolor="#666666"
     borderopacity="1"
     objecttolerance="10"
     gridtolerance="10"
     guidetolerance="10"
     inkscape:pageopacity="0"
     inkscape:pageshadow="2"
     inkscape:window-width="1360"
     inkscape:window-height="714"
     id="namedview64"
     showgrid="true"
     inkscape:zoom="14.75"
     inkscape:cx="3.1509134"
     inkscape:cy="0.065264991"
     inkscape:window-x="0"
     inkscape:window-y="28"
     inkscape:window-maximized="1"
     inkscape:current-layer="g60">
    <inkscape:grid
       type="xygrid"
       id="grid2191" />
  </sodipodi:namedview>
  <filter
     id="a"
     height="1.294962"
     width="1.106002"
     x="-.053001"
     y="-.147481">
    <feGaussianBlur
       stdDeviation="1.4133574"
       id="feGaussianBlur2" />
  </filter>
  <filter
     id="b">
    <feGaussianBlur
       stdDeviation="1.9"
       id="feGaussianBlur5" />
  </filter>
  <filter
     id="c">
    <feGaussianBlur
       stdDeviation="1.1263538"
       id="feGaussianBlur8" />
  </filter>
  <linearGradient
     id="d"
     gradientUnits="userSpaceOnUse"
     x1="56"
     x2="56"
     y1="32"
     y2="88.117546">
    <stop
       offset="0"
       stop-color="#fff"
       id="stop11" />
    <stop
       offset="1"
       stop-color="#fff"
       stop-opacity="0"
       id="stop13" />
  </linearGradient>
  <linearGradient
     id="e"
     gradientUnits="userSpaceOnUse"
     x1="52"
     x2="52"
     y1="64"
     y2="68">
    <stop
       offset="0"
       id="stop16" />
    <stop
       offset="1"
       stop-opacity="0"
       id="stop18" />
  </linearGradient>
  <radialGradient
     id="f"
     cx="48"
     cy="112"
     gradientTransform="matrix(1.2935346 -.00553408 .00454134 1.0614911 3.986491 -10.444275)"
     gradientUnits="userSpaceOnUse"
     r="32">
    <stop
       offset="0"
       stop-color="#ffea00"
       id="stop21" />
    <stop
       offset="1"
       stop-color="#ffa000"
       id="stop23" />
  </radialGradient>
  <radialGradient
     id="g"
     cx="100.88867"
     cy="155.99673"
     gradientTransform="matrix(6.2113128 0 0 5.5040777 -486.03133 -654.01913)"
     gradientUnits="userSpaceOnUse"
     r="40">
    <stop
       offset="0"
       stop-color="#fff"
       id="stop26" />
    <stop
       offset=".11366145"
       stop-color="#bdbebf"
       id="stop28" />
    <stop
       offset=".20296688"
       stop-color="#ececec"
       id="stop30" />
    <stop
       offset=".2363"
       stop-color="#fafafa"
       id="stop32" />
    <stop
       offset=".38818121"
       stop-color="#fff"
       id="stop34" />
    <stop
       offset=".5313"
       stop-color="#fafafa"
       id="stop36" />
    <stop
       offset=".8449"
       stop-color="#ebecec"
       id="stop38" />
    <stop
       offset="1"
       stop-color="#e1e2e3"
       id="stop40" />
  </radialGradient>
  <clipPath
     id="h">
    <path
       d="m14.530963 56.084772c-1.219674 0-2.1875.967827-2.1875 2.1875v17.0625c9.640301 2.396967 24.165833 3.665228 35.656537 3.665228s22.359699-1.353033 32-3.75v-17.0625c0-1.219674-.967827-2.1875-2.1875-2.1875z"
       filter="url(#a)"
       id="path43" />
  </clipPath>
  <g
     transform="matrix(.125 0 0 .125 .002764 0)"
     id="g60">
    <path
       d="m 27.202621,48.772272 c -3.884437,0 -7,3.146813 -7,7.03125 v 53.730498 c 0,3.88444 3.115563,7 7,7 L 81,116.44924 c 3.884437,0 7,-3.11556 7,-7 V 55.71875 C 88,51.834313 84.884437,48.6875 81,48.6875 l -3.88919,-0.03181 v 4.637172 c 0,0.95614 -0.762611,1.71875 -1.71875,1.71875 h -8.667249 c -0.95614,0 -1.71875,-0.762611 -1.71875,-1.71875 V 48.65569 Z"
       style="fill:#020202;stroke:#000000;stroke-width:2;stroke-linecap:round;stroke-linejoin:round;stroke-dashoffset:1.08780003;filter:url(#b)"
       transform="matrix(1.4153344,0,0,1.4153344,-4.59356,-51.891023)"
       id="path46"
       inkscape:connector-curvature="0"
       sodipodi:nodetypes="cssccssccsssscc" />
    <path
       d="m 33.376496,16.165008 c -5.191469,0.01569 -9.376592,4.1851 -9.376592,9.376591 v 77.152341 c 0,5.19149 4.185749,9.29456 9.376592,9.37659 L 72,112 l 38.57928,-0.0494 c 5.19149,-0.007 9.37659,-4.1851 9.37659,-9.37659 V 25.421619 c 0,-5.191491 -4.1851,-9.376591 -9.37659,-9.376591 L 103.97789,16 v 5.554723 c 0,1.353258 -1.07935,2.432606 -2.43261,2.432606 H 90.410495 c -1.353258,0 -2.436098,-1.079355 -2.432606,-2.432606 V 16 Z"
       id="path48"
       inkscape:connector-curvature="0"
       style="fill:#ffffff"
       sodipodi:nodetypes="ssscccssccsssccs" />
    <path
       d="m 32.845744,17.580343 c -4.109829,0.0097 -7.430506,3.320663 -7.430506,7.430505 v 78.213842 c 0,4.10985 3.320669,7.4368 7.430506,7.4305 l 78.264286,-0.11998 c 4.10984,-0.005 7.4305,-3.32065 7.4305,-7.4305 V 24.890868 c 0,-4.109841 -3.32066,-7.430505 -7.4305,-7.430505 l -5.71681,-0.04503 v 4.935513 c 0,1.69157 -1.36024,3.051815 -3.05181,3.051815 H 89.614369 c -1.691574,0 -3.051815,-1.360243 -3.051815,-3.051815 v -4.935513 z"
       id="path50"
       inkscape:connector-curvature="0"
       style="fill:url(#g)"
       sodipodi:nodetypes="cssscssccsssscc" />
    <rect
       height="64"
       rx="3.115968"
       width="80"
       x="31.977888"
       y="40"
       id="rect52"
       style="fill:url(#f)" />
    <rect
       height="32.170307"
       rx="2.2015769"
       transform="matrix(1.4153344,0,0,1.4153344,-1.35127,-50.340362)"
       width="56.451389"
       x="23.548611"
       y="63.829693"
       id="rect54"
       style="fill:url(#e);filter:url(#c)" />
    <path
       clip-path="url(#h)"
       d="m 26.275197,56.107927 c -1.219674,0 -2.726587,1.222905 -2.726587,2.442578 l -0.0996,11.688359 0.0996,5.374141 C 33.188911,78.009972 36.509296,79 48,79 59.490704,79 70.359699,77.646967 80,75.25 V 58.1875 C 80,56.967826 79.032173,56 77.8125,56 Z"
       transform="matrix(1.4153344,0,0,1.4153344,-1.35127,-39.017687)"
       id="path56"
       inkscape:connector-curvature="0"
       style="fill:url(#d);filter:url(#a)"
       sodipodi:nodetypes="ccccscscc" />
    <path
       d="m 31.988696,101.03857 v 1.41533 c 0,1.72624 1.36982,3.08751 3.096044,3.09604 l 73.7971,0.4439 c 1.72622,0.009 3.09605,-1.3698 3.09605,-3.09604 v -1.41533 c 0,1.72623 -1.36983,3.10457 -3.09605,3.09604 l -73.7971,-0.4439 c -1.726223,-0.009 -3.096044,-1.36981 -3.096044,-3.09604 z"
       id="path58"
       inkscape:connector-curvature="0"
       style="fill:#ffffff"
       sodipodi:nodetypes="csccscccc" />
  </g>
  <g
     id="g2281"
     transform="translate(0,2)">
    <path
       id="path1630"
       transform="matrix(0,0.14530659,-0.14530659,0,12.211258,-3.2273136)"
       d="M 62.6875,3.21875 C 62.209361,3.3251895 61.823747,3.7277733 61.46875,4.0625 L 61.375,3.96875 26.40625,36.40625 c -0.461774,0.435805 -0.93749,0.966265 -0.9375,2.125 0,1.158773 0.47582,1.689264 0.9375,2.125 l 8.15625,8.1875 c 0.01033,0.01051 0.02074,0.02092 0.03125,0.03125 1.094359,1.058529 2.650674,1.128065 3.84375,0.21875 0.01051,-0.01032 0.02092,-0.02074 0.03125,-0.03125 l 16.704,-14.37675 -0.7205,41.6285 c 0.0071,1.490569 0.187893,2.929247 1.90625,2.9375 H 70.283 c 1.717353,-0.0082 2.929282,-1.220155 2.9375,-2.9375 L 72.5,36.40625 88.34375,49.0625 c 0.01032,0.01051 0.02074,0.02092 0.03125,0.03125 1.071736,0.816838 2.843935,0.718071 3.8125,-0.21875 0.01051,-0.01032 0.02093,-0.02074 0.03125,-0.03125 l 8.25,-8.21875 c 0.68731,-0.648651 0.84376,-1.38688 0.84375,-2.09375 0,-0.706872 -0.21893,-1.476333 -0.90625,-2.125 l -35,-32.4375 C 64.973706,3.5572792 64.408622,3.3135174 63.8125,3.28125 63.537956,3.2172038 63.21617,3.1010615 62.6875,3.21875 Z"
       style="fill:url(#b-4);filter:url(#a-8)"
       inkscape:connector-curvature="0" />
    <path
       id="path1632"
       transform="matrix(0,0.14530659,-0.14530659,0,12.211258,-3.2273136)"
       d="m 62.5625,2.65625 c -0.545945,0.121534 -0.885393,0.4596071 -1.1875,0.75 -0.0054,0.00523 -0.02586,-0.0052 -0.03125,0 C 61.215842,3.4170248 61.092222,3.4732156 61,3.5625 L 26.03125,36 c -0.487207,0.459808 -1.124989,1.218707 -1.125,2.53125 0,1.299271 0.640131,2.03886 1.125,2.5 v 0.03125 l 8.125,8.1875 c 0.01268,0.01291 0.01842,0.01864 0.03125,0.03125 1.276892,1.235085 3.2023,1.310508 4.59375,0.25 0.01082,-0.01 0.02125,-0.02043 0.03125,-0.03125 l 0.0625,-0.03125 16.62675,-15.3785 0.1085,42.224 c 0.0037,0.767135 0.04152,1.581995 0.375,2.28125 0.333476,0.699255 1.077838,1.213871 2.09375,1.21875 h 11.34375 c 1.980464,-0.0095 3.490523,-1.519543 3.5,-3.5 l 0.1085,-38.783 14.90625,11.9375 c 0.01268,0.01291 0.01842,0.01864 0.03125,0.03125 H 88 c 0.01,0.01082 0.02043,0.02125 0.03125,0.03125 1.326646,1.011121 3.361897,0.911254 4.5625,-0.25 0.01291,-0.01268 0.01864,-0.01842 0.03125,-0.03125 l 8.21875,-8.21875 V 41 c 0.79355,-0.761926 1.03126,-1.685895 1.03125,-2.46875 0,-0.822906 -0.28842,-1.77121 -1.09375,-2.53125 l -35,-32.4375 C 65.275784,3.0816601 64.630638,2.8098994 63.9375,2.75 V 2.71875 c -0.01516,-0.00354 -0.07607,0.00438 -0.09375,0 C 63.601562,2.658749 63.170534,2.5208941 62.5625,2.65625 Z"
       style="opacity:0.38118801;fill:url(#d-5);filter:url(#c-0)"
       inkscape:connector-curvature="0" />
    <path
       id="path1634"
       d="M 11.442795,6.0730299 6.6563286,11.196151 c -0.011535,0.01222 -0.027599,0.01915 -0.044406,0.01915 -0.016807,0 -0.03287,-0.0069 -0.044406,-0.01915 L 5.3709007,9.999534 c -0.020982,-0.02169 -0.022969,-0.05546 -0.00467,-0.07946 L 7.6799973,7.0266898 H 1.0690368 C 1.0355438,7.0265273 1.0084317,6.9994174 1.0082714,6.9659241 V 5.0874552 c 1.625e-4,-0.033493 0.027272,-0.060605 0.060765,-0.060765 H 7.6799973 L 5.3662269,2.1333082 c -0.018294,-0.024003 -0.016308,-0.05777 0.00467,-0.079463 L 6.5675171,0.85722902 c 0.011535,-0.012223 0.027599,-0.019151 0.044406,-0.019151 0.016807,0 0.03287,0.00693 0.044406,0.019151 L 11.442796,5.9888932 c 0.03437,0.024347 0,0.058632 -10e-7,0.084137 z"
       style="fill:url(#e-9);stroke-width:0.125"
       inkscape:connector-curvature="0" />
    <path
       id="path1636"
       d="m 11.457211,6.0002883 c -0.0016,-0.00704 -0.0082,-0.016331 -0.01681,-0.022418 L 6.6541482,0.85708172 c -0.011535,-0.012223 -0.02803,-0.016814 -0.044836,-0.016814 -0.016807,0 -0.027696,0.00459 -0.039232,0.016814 L 6.0061575,1.4188997 10.340345,5.9778701 c 0.03437,0.024347 0,0.058563 0,0.084068 l -4.2678943,4.5522549 0.4976296,0.499139 c 0.011536,0.01222 0.022425,0.01681 0.039232,0.01681 0.016807,0 0.033301,-0.0046 0.044836,-0.01681 L 11.440397,6.0619381 c 0,-0.019129 0.02165,-0.04054 0.01681,-0.06165 z"
       style="fill:#ffffff;stroke-width:0.125"
       inkscape:connector-curvature="0" />
  </g>
</svg>
